X:1
T:Title
%%score { 1 | 2 }
L:1/8
Q:1/4=100
M:4/4
K:Bb
V:1 treble nm="Grand Piano"
V:2 bass 
V:1
 [DF]2 [DB]>[Ec] [Fd] [Fd]3 | c2 B>G [DF]4 | [DF]2 [DB]>[Ec] [Fd] [Fd]3 | [=Ec]2 [EG]>[EB] [Fc]4 | %4
w: Frank~M.~Graham * * * *||||
 [Fd]2 [Fd]>[Ec] [Ec] [DB]3 | c2 B>G [DF]4 | [DF]2 [DB]>[Ec] [Fd] [Fd]3 | c2 G<A [DB]4 | %8
w: ||||
 [DF]2 [DF]>[CE] [B,D] [DF]3 | [FB]2 [GB]>[EG] [DF]4 | [DF]2 [DB]>[Ec] [Fd] [Fd]3 | %11
w: |||
 [=Ec]2 [EG]>[EB] [Fc]4 | [Fd]2 [Fd]>[Ec] [Ec] [DB]3 | c2 B>G [DF]4 | [DF]2 [DB]>[Ec] [Fd] [Fd]3 | %15
w: ||||
 c2 G<A [DB]4 |] %16
w: |
V:2
 [B,,B,]2 [B,,F,]>[B,,F,] [B,,B,] [B,,B,]3 | [E,G,E]2 [E,G,E]>[E,B,E] [B,,B,]4 | %2
 [B,,B,]2 [B,,F,]>[B,,F,] [B,,B,] [B,,B,]3 | [C,G,]2 [C,B,]>[C,G,] [F,A,]4 | %4
 [B,,B,]2 [B,,B,]>[B,,F,] [B,,F,] [B,,F,]3 | [E,G,E]2 [E,G,E]>[E,G,E] [B,,B,]4 | %6
 [B,,B,]2 [B,,F,]>[B,,F,] [B,,B,] [B,,B,]3 | [E,G,E]2 [F,CE]<[F,CE] [B,,B,]4 | %8
 [B,,B,]2 [B,,B,]>[B,,F,] [B,,F,] [B,,B,]3 | [D,B,]2 [E,B,]>[E,B,] [B,,B,]4 | %10
 [B,,B,]2 [B,,F,]>[B,,F,] [B,,B,] [B,,B,]3 | [C,G,]2 [C,B,]>[C,G,] [F,A,]4 | %12
 [B,,B,]2 [B,,B,]>[B,,F,] [B,,F,] [B,,F,]3 | [E,G,E]2 [E,G,E]>[E,B,E] [B,,B,]4 | %14
 [B,,B,]2 [B,,F,]>[B,,F,] [B,,B,] [B,,B,]3 | [E,G,E]2 [F,CE]<[F,CE] [B,,B,]4 |] %16

